src/img/calc/neck.svg

<svg width="59" height="81" viewBox="0 0 59 81" fill="none" xmlns="http://www.w3.org/2000/svg">
<g clip-path="url(#clip0)">
<path d="M21.4 27.9004C21.4 27.9004 20.8 39.4004 16.2 45.7004C12.3 51.1004 6.3 53.5004 6.3 53.5004C6.3 53.5004 15.8 50.8004 19.1 44.0004C22.9 36.1004 21.4 27.9004 21.4 27.9004Z" fill="#3A4561"/>
<path d="M34.5 40.8001C34.5 40.8001 37.1 41.3001 41.2 40.5001C45.4 39.6001 52.3 39.6002 52 51.7002C52 51.7002 51.5 43.9002 47.1 41.9002C42.5 39.8002 37.5 43.0001 34.5 40.8001Z" fill="#3A4561"/>
<path d="M15.9 53.3002C15.9 53.3002 22.9 52.9002 26.6 51.5002C30.4 50.2002 33.8 52.7002 33.8 52.7002C33.8 52.7002 30.7 51.7002 28 52.3002C25.3 53.0002 19.3 54.1002 15.9 53.3002Z" fill="#3A4561"/>
<path d="M35.9 51.7C35.9 51.7 35.5 49.7 37.6 48.5C40.2 47 41.1 44.5 41.1 44.5C41.1 44.5 41.1 46.4 39.6 47.9C38.2 49.2 36.3 49.7 35.9 51.7Z" fill="#3A4561"/>
<path d="M48.9 52C48.9 52 46.4 56.2 50.5 58.9C54.5 61.7 59.4 67.1 58.5 71.9C57.3 77.8 52.1 79.4 48.6 78.8C48.6 78.8 56.1 78.6 57.1 71.6C58.1 64.5 50.2 59.6 48.5 58.1C46.6 56.3 46.9 54.2 48.9 52Z" fill="#3A4561"/>
<path d="M47.8 31.2002C47.8 30.0002 47.2 28.7002 47.2 28.7002C47.2 28.7002 47.9 31.6002 46.1 32.2002C42.7 33.3002 31.8 31.0002 29.4 24.7002C29.4 24.7002 29.4 27.0002 32.2 29.2002C32.2 29.2002 33.9 30.6002 36.8 31.7002C35.7 32.1002 34.6 33.3002 33.6 36.3002C32.2 40.4002 32 45.8002 32 45.8002C34 35.9002 35 34.5002 37.5 33.1002C38.2 32.7002 39 32.6002 39.8 32.5002C43.3 33.2002 45.4 33.3002 46.5 32.8002C47.7 32.5002 47.8 31.6002 47.8 31.2002Z" fill="#3A4561"/>
<path d="M8.6 53.5998C8.6 53.5998 0 53.1998 0 62.1998C0 71.0998 0.6 80.9998 0.6 80.9998C0.6 80.9998 0.6 66.5998 1.1 61.9998C1.9 54.3998 8.6 53.5998 8.6 53.5998Z" fill="#3A4561"/>
</g>
<defs>
<clipPath id="clip0">
<rect width="58.6" height="81" fill="white"/>
</clipPath>
</defs>
</svg>

<svg width="59" height="81" fill="none" xmlns="http://www.w3.org/2000/svg"><g clip-path="url(#clip0)" fill="#3A4561"><path d="M21.4 27.9s-.6 11.5-5.2 17.8c-3.9 5.4-9.9 7.8-9.9 7.8s9.5-2.7 12.8-9.5c3.8-7.9 2.3-16.1 2.3-16.1zM34.5 40.8s2.6.5 6.7-.3c4.2-.9 11.1-.9 10.8 11.2 0 0-.5-7.8-4.9-9.8-4.6-2.1-9.6 1.1-12.6-1.1zM15.9 53.3s7-.4 10.7-1.8c3.8-1.3 7.2 1.2 7.2 1.2s-3.1-1-5.8-.4c-2.7.7-8.7 1.8-12.1 1z"/><path d="M35.9 51.7s-.4-2 1.7-3.2c2.6-1.5 3.5-4 3.5-4s0 1.9-1.5 3.4c-1.4 1.3-3.3 1.8-3.7 3.8zM48.9 52s-2.5 4.2 1.6 6.9c4 2.8 8.9 8.2 8 13-1.2 5.9-6.4 7.5-9.9 6.9 0 0 7.5-.2 8.5-7.2 1-7.1-6.9-12-8.6-13.5-1.9-1.8-1.6-3.9.4-6.1zM47.8 31.2c0-1.2-.6-2.5-.6-2.5s.7 2.9-1.1 3.5c-3.4 1.1-14.3-1.2-16.7-7.5 0 0 0 2.3 2.8 4.5 0 0 1.7 1.4 4.6 2.5-1.1.4-2.2 1.6-3.2 4.6-1.4 4.1-1.6 9.5-1.6 9.5 2-9.9 3-11.3 5.5-12.7.7-.4 1.5-.5 2.3-.6 3.5.7 5.6.8 6.7.3 1.2-.3 1.3-1.2 1.3-1.6zM8.6 53.6S0 53.2 0 62.2C0 71.1.6 81 .6 81s0-14.4.5-19c.8-7.6 7.5-8.4 7.5-8.4z"/></g><defs><clipPath id="clip0"><path fill="#fff" d="M0 0h58.6v81H0z"/></clipPath></defs></svg>
